X:241
T:Hornpipe TS.241
M:C
L:1/8
Q:1/2=90
S:Thomas Sands’ MS,1810,Lincolnshire
R:.hornpipe
O:England;Lincolnshire
Z:vmp.Ruairidh Greig, 2011
K:D
dc|dAFA defd|edcB AGFE|FGAB cdef|g2e2egfe|
dAFA dAfd|edcB AGFE|FAdf Aceg|f2d2d2:|
|:FE|Ddcd edcd|efga g2fe|fdcd Bded|c2A2A2 (3gfe|
dAFA dAfc|edcB AGFE|FAdf Aceg|f2d2d2:|]

